icon_installer/data/icons/scalable/actions/show-power-symbolic.svg

<?xml version="1.0" encoding="UTF-8"?>
<svg height="16px" viewBox="0 0 16 16" width="16px" xmlns="http://www.w3.org/2000/svg">
    <path d="m 5 0 c -1 0 -1 1 -1 1 v 1 h -1 s -0.707031 -0.015625 -1.449219 0.355469 c -0.738281 0.367187 -1.550781 1.308593 -1.550781 2.644531 v 8 s -0.015625 0.707031 0.355469 1.445312 c 0.371093 0.738282 1.3125 1.554688 2.644531 1.554688 h 3 c 0.550781 0 1 -0.449219 1 -1 c 0 -0.554688 -0.449219 -1 -1 -1 h -3 c -0.554688 0 -1 -0.445312 -1 -1 v -8 c 0 -0.554688 0.445312 -1 1 -1 h 6 c 0.554688 0 1 0.445312 1 1 h 2 c 0 -1.335938 -0.8125 -2.277344 -1.550781 -2.644531 c -0.742188 -0.371094 -1.449219 -0.355469 -1.449219 -0.355469 h -1 v -1 c 0 -1 -1 -1 -1 -1 z m 5 6 c -1.933594 0.273438 -2.722656 2.894531 -3 4 h -2 c -0.550781 0 -1 0.445312 -1 1 c 0 0.550781 0.449219 1 1 1 h 2 c 0.277344 1.101562 1.066406 3.722656 3 4 h 2 s 1 0 1 -1 v -1 h 3 v -2 h -3 v -2 h 3 v -2 h -3 v -1 s 0 -1 -1 -1 z m 0 0" fill="#222222"/>
</svg>

<svg xmlns="http://www.w3.org/2000/svg" width="16" height="16"><path fill="#222" d="M5 0C4 0 4 1 4 1v1H3s-.707-.016-1.45.355C.813 2.723 0 3.665 0 5v8s-.016.707.355 1.445C.727 15.184 1.668 16 3 16h3a1 1 0 1 0 0-2H3c-.555 0-1-.445-1-1V5c0-.555.445-1 1-1h6c.555 0 1 .445 1 1h2c0-1.336-.813-2.277-1.55-2.645C9.706 1.985 9 2 9 2H8V1c0-1-1-1-1-1zm5 6c-1.934.273-2.723 2.895-3 4H5a1 1 0 1 0 0 2h2c.277 1.102 1.066 3.723 3 4h2s1 0 1-1v-1h3v-2h-3v-2h3V8h-3V7s0-1-1-1zm0 0"/></svg>
